X:1
T:Title
%%score [ ( 1 2 3 ) ( 4 5 6 ) ]
L:1/8
Q:1/4=100
M:4/4
K:E
V:1 treble nm="Midi_20"
V:2 treble 
V:3 treble 
V:4 bass nm="Midi_20"
V:5 bass 
V:6 bass 
V:1
"^John Stainer\n(1840-1901)""^Grandpont (10. 10)""^Horatio Bonar\n(1809-89)""^Beloved, let us love" G2 | %1
 G2 F2 E2 C2 | E4 E4 | (D2 A4) G2 | (G4 F2) || B2 | B2 A2 G2 ^E2 | F4 A4 | G4 F4 | E6 |] %10
V:2
 G2 | G2 F2 E2 C2 | E4 B,4 | D4 E4 | (E4 D2) || F2 | ^E2 F2 =D2 C2 | C4 (C2 D2) | E4 (E2 D2) | %9
 E6 |] %10
V:3
 x2 | [B,EG]4 [CEA]4 | [B,EG]4 x4 | x8 | x6 || x2 | x8 | x8 | x8 | x6 |] %10
V:4
"^1. Belovèd, let us love: love is of God;\nIn God alone hath love its true abode.\n\n2. Belovèd, let us love: for they who love,\nThey only, are His sons, born from above.\n\n3. Belovèd, let us love: for love is rest,\nAnd he who loveth not abides unblest." G,2 | %1
 G,2 F,2 E,2 C,2 | E,4 B,4 | A,4 B,4 | B,6 || %5
"^4. Belovèd, let us love: for love is light,\nAnd he who loveth not dwelleth in night.\n\n5. Belovèd, let us love: for only thus\nShall we behold that God Who loveth us." D2 | %6
 =D2 C2 B,2 G,2 | A,4 A,4 | (B,2 C2) A,4 | G,6 |] %10
V:5
 G,2 | G,2 F,2 E,2 C,2 | E,4 G,4 | F,4 E,4 | B,,6 || B,,2 | G,,2 A,,2 B,,2 C,2 | A,,4 F,,4 | %8
 (G,,2 A,,2) B,,4 | E,6 |] %10
V:6
 x2 | E,,8- | E,,4 x4 | x8 | x6 || x2 | x8 | x8 | x8 | x6 |] %10

